X:1
T: The Boys of Portaferry
C:
R:Reel
Q: 232
K:G
M:4/4
L:1/8
BA|G2 BG Ac BA|G2 BG GE DE|G2 BG AB ce|dB gB c2 BA|
G2 BG Ac BA|G2 BG GE DE|G2 BG AB ce|dB AB G2 GA|
|:Bd gd ed gd|Bd gd e2 dc|Bd gd ed ef|ge dB c2 BA|
Bd gd ed gd|Bd gd e2 dc|Bd gd eg fa|1ge dB c2 GA:|2ge dB c2 BA|
G2 BG Ac BA|G2 BG GE DE|G2 BG AB ce|dB gB c2 BA|
G2 BG Ac BA|G2 BG GE DE|G2 BG AB ce|dB AB G2||
